X:93
T:Tigh Rafeartaigh
T:Tigh Rabhartaigh
R:slip jig
C:Michael Rooney
Z:hn-slipjig-93
M:9/8
L:1/8
K:D
D2F FED EFA | d2f fed efa | g2f ede fdA |1 B2B BAF E2F :|2 B2B BAF EFA ||
|: ABd def ede | f2a abf afd | g2f ede fdA |1 B2B BAF EFA :|2 B2B BAF E2F ||

